icons/linear-new-building-home-house-finance.svg

<svg xmlns="http://www.w3.org/2000/svg" width="32px" height="32px" viewBox="0 0 32 32" version="1.1">
    <title>linear-new-building-home-house-finance</title>
    <g id="linear-new-building-home-house-finance" stroke-width="1" fill-rule="evenodd">
        <path d="M16.6332378,2.2260427 L27.6332378,11.2260427 C27.8653732,11.4159717 28,11.7000669 28,12 L28,29 C28,29.5522847 27.5522847,30 27,30 L5,30 C4.44771525,30 4,29.5522847 4,29 L4,12 C4,11.7000669 4.13462678,11.4159717 4.36676221,11.2260427 L15.3667622,2.2260427 C15.7351281,1.92465243 16.2648719,1.92465243 16.6332378,2.2260427 Z M16,4.291 L6,12.473 L6,28 L26,28 L26,12.474 L16,4.291 Z M19.6,11.2 C20.0418278,11.5313708 20.1313708,12.1581722 19.8,12.6 L17.249,16 L20,16 C20.5522847,16 21,16.4477153 21,17 C21,17.5522847 20.5522847,18 20,18 L17,18 L17,20 L20,20 C20.5522847,20 21,20.4477153 21,21 C21,21.5522847 20.5522847,22 20,22 L17,22 L17,24 C17,24.5522847 16.5522847,25 16,25 C15.4477153,25 15,24.5522847 15,24 L15,22 L12,22 C11.4477153,22 11,21.5522847 11,21 C11,20.4477153 11.4477153,20 12,20 L15,20 L15,18 L12,18 C11.4477153,18 11,17.5522847 11,17 C11,16.4477153 11.4477153,16 12,16 L14.751,16 L12.2,12.6 C11.8686292,12.1581722 11.9581722,11.5313708 12.4,11.2 C12.8418278,10.8686292 13.4686292,10.9581722 13.8,11.4 L16,14.333 L18.2,11.4 C18.5313708,10.9581722 19.1581722,10.8686292 19.6,11.2 Z" id="&#24418;&#29366;" fill-rule="nonzero" />
    </g>
</svg>

<svg xmlns="http://www.w3.org/2000/svg" viewBox="0 0 32 32"><path fill="currentColor" d="m16.633 2.226 11 9A1 1 0 0 1 28 12v17a1 1 0 0 1-1 1H5a1 1 0 0 1-1-1V12a1 1 0 0 1 .367-.774l11-9a1 1 0 0 1 1.266 0M16 4.291 6 12.473V28h20V12.474zm3.6 6.909a1 1 0 0 1 .2 1.4L17.249 16H20a1 1 0 0 1 0 2h-3v2h3a1 1 0 0 1 0 2h-3v2a1 1 0 0 1-2 0v-2h-3a1 1 0 0 1 0-2h3v-2h-3a1 1 0 0 1 0-2h2.751L12.2 12.6a1 1 0 0 1 1.6-1.2l2.2 2.933 2.2-2.933a1 1 0 0 1 1.4-.2"/></svg>
